lib/functional/media/camera-rotate.svg

<svg xmlns="http://www.w3.org/2000/svg" fill="none" stroke="currentColor" aria-hidden="true" viewBox="0 0 32 32"><g id="Icon-CameraRotate"><g clip-path="url(#clip0_12_3915)"><g id="size=md (32px)"><path id="Vector" stroke-linecap="round" stroke-linejoin="round" stroke-width="2" d="M26 26H6C5.46957 26 4.96086 25.7893 4.58579 25.4142C4.21071 25.0391 4 24.5304 4 24V10C4 9.46957 4.21071 8.96086 4.58579 8.58579C4.96086 8.21071 5.46957 8 6 8H10L12 5H20L22 8H26C26.5304 8 27.0391 8.21071 27.4142 8.58579C27.7893 8.96086 28 9.46957 28 10V24C28 24.5304 27.7893 25.0391 27.4142 25.4142C27.0391 25.7893 26.5304 26 26 26Z"/><path id="Vector_2" stroke-linecap="round" stroke-linejoin="round" stroke-width="2" d="M21.5004 15L19.5379 12.9625C18.5984 12.0267 17.3264 11.5012 16.0004 11.5012C14.6744 11.5012 13.4024 12.0267 12.4629 12.9625"/><path id="Vector_3" stroke-linecap="round" stroke-linejoin="round" stroke-width="2" d="M19.5375 20.0375C18.598 20.9733 17.326 21.4988 16 21.4988C14.674 21.4988 13.402 20.9733 12.4625 20.0375L10.5 18"/><path id="Vector_4" stroke-linecap="round" stroke-linejoin="round" stroke-width="2" d="M22 12L21.5 15L18.5 15.5"/><path id="Vector_5" stroke-linecap="round" stroke-linejoin="round" stroke-width="2" d="M13.5 17.5L10.5 18L10 21"/></g></g></g><defs><clipPath id="clip0_12_3915"><rect width="32" height="32" fill="white" rx="5"/></clipPath></defs></svg>

<svg xmlns="http://www.w3.org/2000/svg" fill="none" stroke="currentColor" aria-hidden="true" viewBox="0 0 32 32"><g stroke="#101828" stroke-linecap="round" stroke-linejoin="round" stroke-width="2" clip-path="url(#a)"><path d="M26 26H6a2 2 0 0 1-2-2V10a2 2 0 0 1 2-2h4l2-3h8l2 3h4a2 2 0 0 1 2 2v14a2 2 0 0 1-2 2Z"/><path d="m21.5 15-1.962-2.037a5.012 5.012 0 0 0-7.075 0m7.075 7.075a5.013 5.013 0 0 1-7.075 0L10.5 18"/><path d="m22 12-.5 3-3 .5m-5 2-3 .5-.5 3"/></g><defs><clipPath id="a"><rect width="32" height="32" fill="#fff" rx="5"/></clipPath></defs></svg>
